X: 39
T:VALSE DE L' IVROGNE
M:3/4
L:1/8
Q:1/4=94
K:G
|:A3/2B/2c B3/2c/2d|c3/2B/2A B2B|c3/2d/2e d3/2e/2c|B3/2A/2G A2E:|!
A2e egf|eBe egf|e2e egf|efg agf|
e2g edc|dBG cBA|B2B c3/2d/2e|d3/2e/2c B3/2A/2G|
A2E|
